X:27
T:Dairyman's Daughter, The
T:Hoirrionn O! air nighean an \`airich
R:Strathspey
S:Simon Fraser Collection
N:No.141
O:Scottish
M:C
L:1/8
K:E Minor
E<E G>A B2 D>F|E<E G>A B>A B2|B>AG>A B2 D>F|E<E G>B e2 B2:|
|:G<G d>B d2 e<E|G<G d>B d2 e2|g2 e>^c d2 B>G|A<A B>^d e2 B2:|

